X:1
T:Title
%%score { ( 1 4 ) | ( 2 3 ) }
L:1/8
Q:1/4=100
M:4/4
K:Eb
V:1 treble nm="Grand Piano"
V:4 treble 
V:2 bass 
V:3 bass 
V:1
 [GB]2 [EG]>[FA] [GB]2 [Ac]>[Ad] | [Ge]6 [Ac]2 | [GB]2 G2 E2 G2 | [DF]6 [DF]2 | %4
w: Wm.~J.~Kirkpatrick * * * * *||||
 G2 GA [B,GB]2 [EGB]2 |[M:9/8] [EAc]2 [Ad]- [Ad] [Ge]2- [Ge] [Gc]2 |[M:4/4] B2 FG =A2 c2 | %7
w: |||
 [DB]6 z2 | [FA]2 [=EG][FA] [Ad]2 [B,Ac]2 | [B,GB]2 [_G=A]B =G2 B2 | [Ge]2 [Ge]2 [_Ge]2 [G=A]2 | %11
w: ||||
 [GB]6 [FA]2 | [EG]2 [EG][GB] [Ge]2 [EG]2 |[M:9/8] [EA]2 [GB]- [GB] c2- c c2 | %14
w: |||
[M:4/4] B2 AG [B,FA]2 [A,DF]2 |[M:3/4] [G,B,E]6 |[M:1/4] G>A |[M:4/4] B6 z2 | B6 z2 | %19
w: |||||
 c2 c>c e2 d>c |[M:3/4] [GB]6 |[M:1/4] B>B |[M:4/4] d6 z2 | e6 z2 | %24
w: |||||
 [EGB][EGB] [EGB]>[CFA] [B,EG]2 [A,DF]>[A,DF] | [G,B,E]6 z2 |] %26
w: ||
V:2
 [E,B,]2 [E,B,]>[E,B,] [E,E]2 [E,C]>[D,C] | [E,B,]6 [E,E]2 | [E,E]2 [E,B,E]2 [G,B,]2 [E,B,E]2 | %3
 [B,,B,]6 [B,,B,]2 | z2 .E2 z4 |[M:9/8] A,2 [F,B,]- [F,B,] [E,B,]2- [E,B,] [E,E]2 | %6
[M:4/4] [F,DF]2 F,-[F,B,=E] [F,C_E]2 [F,=A,E]2 | [B,,F,B,]6 z2 | [B,,B,]2 [B,,B,]2 [B,,B,]2 C,D, | %9
 E,2 z G [E,B,E]2 [E,G,E]2 | [E,B,]2 [E,B,]2 [E,C]2 [E,C]2 | [E,B,]6 [E,B,]2 | %12
 [E,B,]2 [E,B,]2 [E,B,]2 [E,_D]2 |[M:9/8] [E,C]2 [E,E]- [E,E][K:treble] [A,EA]2- [A,EA] [A,EA]2 | %14
[M:4/4] [B,EG]2 F=E[K:bass] B,,2 B,,2 |[M:3/4] E,6 |[M:1/4][K:treble] E>F | %17
[M:4/4] G6[K:bass][K:treble] z2 | G6[K:bass] z2 | [A,EA]2 [A,EA]>[A,EA] [A,CA]2 [A,EA]>[A,EA] | %20
[M:3/4][K:bass] [E,E]2 E,>E, E,2 |[M:1/4][K:treble] G>G |[M:4/4] A6 A>A | G6[K:bass] z2 | %24
 E,E, E,>A,, B,,2 B,,>B,, | E,6 z2 |] %26
V:3
 x8 | x8 | x8 | x8 | [E,B,E]2 [E,B,]-[E,B,F] E,2 E,2 |[M:9/8] x9 |[M:4/4] z2 .=A,2 z4 | x8 | x8 | %9
 z2 [E,E]2 z4 | x8 | x8 | x8 |[M:9/8] x4[K:treble] x5 |[M:4/4] z2 B,2[K:bass] z4 |[M:3/4] x6 | %16
[M:1/4][K:treble] x2 |[M:4/4] z2[K:bass] E,>E, E,2[K:treble] E>F | %18
 z2[K:bass] E,>E, E,2 [E,E]>[E,E] | x8 |[M:3/4][K:bass] x6 |[M:1/4][K:treble] x2 |[M:4/4] x8 | %23
 z2[K:bass] E,>E, E,2 E,E, | x8 | x8 |] %26
V:4
 x8 | x8 | x8 | x8 | x8 |[M:9/8] x9 |[M:4/4] x8 | x8 | x8 | x8 | x8 | x8 | x8 |[M:9/8] x9 | %14
[M:4/4] x8 |[M:3/4] x6 |[M:1/4] x2 |[M:4/4] z2 E>E E2 G>A | z2 E>E E2 [GB]>[GB] | x8 | %20
[M:3/4] z2 E>E E2 |[M:1/4] x2 |[M:4/4] z2 B,>B, B,2 c>d | z2 B,>B, B,2 [B,EG][B,FA] | x8 | x8 |] %26

